icons/log-out.svg

<svg width="24" height="24" viewBox="0 0 24 24" fill="none" xmlns="http://www.w3.org/2000/svg">
<path fill-rule="evenodd" clip-rule="evenodd" d="M4 3C4 2.44772 4.44772 2 5 2H19C19.5523 2 20 2.44772 20 3V21C20 21.5523 19.5523 22 19 22H5C4.44772 22 4 21.5523 4 21V19C4 18.4477 4.44772 18 5 18C5.55228 18 6 18.4477 6 19V20H18V4H6V5C6 5.55228 5.55228 6 5 6C4.44772 6 4 5.55228 4 5V3ZM6.70711 7.29289C7.09763 7.68342 7.09763 8.31658 6.70711 8.70711L4.41421 11H13C13.5523 11 14 11.4477 14 12C14 12.5523 13.5523 13 13 13H4.41421L6.70711 15.2929C7.09763 15.6834 7.09763 16.3166 6.70711 16.7071C6.31658 17.0976 5.68342 17.0976 5.29289 16.7071L1.29289 12.7071C0.902369 12.3166 0.902369 11.6834 1.29289 11.2929L5.29289 7.29289C5.68342 6.90237 6.31658 6.90237 6.70711 7.29289Z" fill="black"/>
</svg>

<svg
  width="24"
  height="24"
  viewBox="0 0 24 24"
  xmlns="http://www.w3.org/2000/svg"
>
  <path
    fill-rule="evenodd"
    clip-rule="evenodd"
    d="M4 3a1 1 0 0 1 1-1h14a1 1 0 0 1 1 1v18a1 1 0 0 1-1 1H5a1 1 0 0 1-1-1v-2a1 1 0 1 1 2 0v1h12V4H6v1a1 1 0 0 1-2 0V3zm2.707 4.293a1 1 0 0 1 0 1.414L4.414 11H13a1 1 0 1 1 0 2H4.414l2.293 2.293a1 1 0 1 1-1.414 1.414l-4-4a1 1 0 0 1 0-1.414l4-4a1 1 0 0 1 1.414 0z"
  />
</svg>
